X:1
T:The Brisk Butcher
M:4/4
L:1/4
K:D
 c| d3/2 e/2 f f| d f2 c| d3/2 e/2 f g| a3 d| c3/2 d/2 e f| g f e d|\
 c e A A| A3| a| a f f d| d B B a| b g g e| d- c2 A| B c d e| f b a b|\
 f e d A| B3||

